X: 3187
Q: "Strathspey."
M: C
L: 1/16
K: Gm
[|\
v(DG3) uG3uA vF3vGuA3uF | (DG3) (G2AB) c3AB3G |\
(DG3) G3A F3GA3F |
(DG3) (G2AB) c3AB3G |\
dg3 g3a (bag2) (agf2) | dg3 b3g a3^f g4 |\
=f3gf3d c3B(AF3) | GABc d3B c3A d3=e |\
fa3 df3 cf3 AF3 | GABc d3B c3A G4 |]


